X: 9538
T: Dash To Portobello
R: reel
M: 4/4
K: Edorian
A|:BE3 EDBc|defe dA3|BEED EFGA|(3Bcd ec dBAF|BE3 EDBc|
def2 dA3|BE3 G3A|B2 AF GE3:|g2 eg bgeg|fd3 Adfa|g2 eg bgeg|
fg (3agf ge3|g3a (3bag eg|f3 g afdf|gfga bgaf|gfed (3Bcd ed:|

